packages/elvis-assets-icons/icons/svg/src/danger_electricity-color.svg

<svg width="24" height="24" fill="none" xmlns="http://www.w3.org/2000/svg"><path d="M15.75 4.5a.75.75 0 01-.75-.75V1.5H.75a.75.75 0 010-1.5h15a.75.75 0 01.75.75V3h6.75a.75.75 0 010 1.5h-7.5z" fill="#000"/><path d="M13.5 11.25a.744.744 0 01-.728-.569l-.675-2.698-3.484-2.09a.747.747 0 01-.361-.703.748.748 0 01.469-.637l3.75-1.5a.747.747 0 01.969.992.745.745 0 01-.411.401l-2.346.938 2.453 1.472a.744.744 0 01.342.461l.523 2.093 2.164-1.082a.754.754 0 01.615-.025l2.464.986-.479-2.393a.748.748 0 111.471-.293l.75 3.75a.75.75 0 01-1.014.843l-3.437-1.375-2.699 1.349a.742.742 0 01-.336.08z" fill="#29D305"/><path d="M5.25 18a3.754 3.754 0 01-3.75-3.75 3.754 3.754 0 013.75-3.75A3.754 3.754 0 019 14.25 3.754 3.754 0 015.25 18zm0-6A2.252 2.252 0 003 14.25a2.252 2.252 0 002.25 2.25 2.252 2.252 0 002.25-2.25A2.252 2.252 0 005.25 12z" fill="#000"/><path d="M7.5 24a.75.75 0 01-.75-.75v-.75c0-.392.306-.72.697-.748 3.538-.252 6.619-2.666 8.242-6.456a.762.762 0 00-.351-1.02.749.749 0 00-.998.361l-.02.047a8.58 8.58 0 01-7.322 5.226l-4.698.338a.818.818 0 01-.054.002H.75a.75.75 0 010-1.5h1.469l4.673-.336A7.072 7.072 0 0012.982 14a2.26 2.26 0 012.04-1.296c.33 0 .65.071.951.212.543.254.956.706 1.161 1.271a2.232 2.232 0 01-.077 1.72c-1.725 4.029-5.002 6.726-8.807 7.265v.076A.75.75 0 017.5 24z" fill="#000"/></svg>

<svg width="24" height="24" viewBox="0 0 24 24" fill="none" xmlns="http://www.w3.org/2000/svg">
<path d="M15.75 4.5C15.336 4.5 15 4.164 15 3.75V1.5H0.75C0.336 1.5 0 1.164 0 0.75C0 0.336 0.336 0 0.75 0H15.75C16.164 0 16.5 0.336 16.5 0.75V3H23.25C23.664 3 24 3.336 24 3.75C24 4.164 23.664 4.5 23.25 4.5H15.75Z" fill="black"/>
<path d="M13.5 11.25C13.391 11.25 13.285 11.227 13.186 11.181C12.978 11.086 12.827 10.903 12.772 10.681L12.097 7.983L8.613 5.893C8.368 5.745 8.229 5.476 8.252 5.19C8.275 4.904 8.455 4.66 8.721 4.553L12.471 3.053C12.561 3.018 12.654 3 12.75 3C13.059 3 13.332 3.185 13.447 3.471C13.521 3.657 13.519 3.861 13.44 4.045C13.361 4.229 13.215 4.372 13.029 4.446L10.683 5.384L13.136 6.856C13.308 6.959 13.429 7.122 13.478 7.317L14.001 9.41L16.165 8.328C16.269 8.276 16.385 8.249 16.501 8.249C16.597 8.249 16.691 8.267 16.78 8.303L19.244 9.289L18.765 6.896C18.725 6.7 18.765 6.5 18.876 6.333C18.987 6.166 19.157 6.053 19.353 6.013C19.402 6.005 19.451 6 19.5 6C19.856 6 20.166 6.254 20.236 6.603L20.986 10.353C21.04 10.623 20.942 10.9 20.73 11.077C20.596 11.189 20.426 11.25 20.251 11.25C20.155 11.25 20.061 11.232 19.972 11.196L16.535 9.821L13.836 11.17C13.732 11.223 13.616 11.25 13.5 11.25Z" fill="#29D305"/>
<path d="M5.25 18C3.182 18 1.5 16.318 1.5 14.25C1.5 12.182 3.182 10.5 5.25 10.5C7.318 10.5 9 12.182 9 14.25C9 16.318 7.318 18 5.25 18ZM5.25 12C4.009 12 3 13.009 3 14.25C3 15.491 4.009 16.5 5.25 16.5C6.491 16.5 7.5 15.491 7.5 14.25C7.5 13.009 6.491 12 5.25 12Z" fill="black"/>
<path d="M7.5 24C7.086 24 6.75 23.664 6.75 23.25V22.5C6.75 22.108 7.056 21.78 7.447 21.752C10.985 21.5 14.066 19.086 15.689 15.296C15.872 14.904 15.712 14.452 15.338 14.276C15.237 14.229 15.13 14.205 15.02 14.205C14.933 14.205 14.847 14.22 14.764 14.25C14.576 14.318 14.425 14.456 14.34 14.637C14.333 14.653 14.326 14.668 14.32 14.684C13.04 17.685 10.236 19.684 6.998 19.91L2.3 20.248C2.285 20.249 2.266 20.25 2.246 20.25H0.75C0.336 20.25 0 19.914 0 19.5C0 19.086 0.336 18.75 0.75 18.75H2.219L6.892 18.414C9.567 18.227 11.881 16.581 12.932 14.115C12.94 14.093 12.96 14.046 12.982 14C13.35 13.213 14.151 12.704 15.022 12.704C15.352 12.704 15.672 12.775 15.973 12.916C16.516 13.17 16.929 13.622 17.134 14.187C17.339 14.753 17.312 15.364 17.057 15.907C15.332 19.936 12.055 22.633 8.25 23.172V23.248C8.25 23.664 7.914 24 7.5 24Z" fill="black"/>
</svg>
